public/static/lp/envio.svg

<svg width="591" height="185" viewBox="0 0 591 185" fill="none" xmlns="http://www.w3.org/2000/svg">
<path d="M0.155274 3.49999H105.905V41.5H46.6553V72H102.155V108.5H46.6553V144H108.155V182H0.155274V3.49999ZM125.155 3.49999H177.155L207.155 113.5H207.655V3.49999H251.155V182H200.155L169.155 71.75H168.655V182H125.155V3.49999ZM259.354 3.49999H308.104L326.854 138H327.354L346.104 3.49999H395.605L357.104 182H297.104L259.354 3.49999ZM401.237 3.49999H447.737V182H401.237V3.49999ZM510.679 92.75C510.679 104.75 510.845 114.75 511.179 122.75C511.512 130.583 512.179 136.833 513.179 141.5C514.345 146.167 515.929 149.417 517.929 151.25C520.095 153.083 522.929 154 526.429 154C529.929 154 532.679 153.083 534.679 151.25C536.845 149.417 538.429 146.167 539.429 141.5C540.595 136.833 541.345 130.583 541.679 122.75C542.012 114.75 542.179 104.75 542.179 92.75C542.179 80.75 542.012 70.8333 541.679 63C541.345 55 540.595 48.6667 539.429 44C538.429 39.3333 536.845 36.0833 534.679 34.25C532.679 32.4167 529.929 31.5 526.429 31.5C522.929 31.5 520.095 32.4167 517.929 34.25C515.929 36.0833 514.345 39.3333 513.179 44C512.179 48.6667 511.512 55 511.179 63C510.845 70.8333 510.679 80.75 510.679 92.75ZM462.679 92.75C462.679 76.0833 463.762 61.9167 465.929 50.25C468.095 38.4167 471.679 28.8333 476.679 21.5C481.679 14 488.262 8.58333 496.429 5.25C504.595 1.74999 514.595 -1.12057e-05 526.429 -1.12057e-05C538.262 -1.12057e-05 548.262 1.74999 556.429 5.25C564.595 8.58333 571.179 14 576.179 21.5C581.179 28.8333 584.762 38.4167 586.929 50.25C589.095 61.9167 590.179 76.0833 590.179 92.75C590.179 109.417 589.095 123.667 586.929 135.5C584.762 147.167 581.179 156.75 576.179 164.25C571.179 171.583 564.595 176.833 556.429 180C548.262 183.167 538.262 184.75 526.429 184.75C514.595 184.75 504.595 183.167 496.429 180C488.262 176.833 481.679 171.583 476.679 164.25C471.679 156.75 468.095 147.167 465.929 135.5C463.762 123.667 462.679 109.417 462.679 92.75Z" fill="#979AAD"/>
</svg>

<svg xmlns="http://www.w3.org/2000/svg" width="591" height="185" fill="none"><path fill="#979AAD" d="M.155 3.5h105.75v38h-59.25V72h55.5v36.5h-55.5V144h61.5v38h-108V3.5Zm125 0h52l30 110h.5V3.5h43.5V182h-51l-31-110.25h-.5V182h-43.5V3.5Zm134.199 0h48.75l18.75 134.5h.5l18.75-134.5h49.501L357.104 182h-60L259.354 3.5Zm141.883 0h46.5V182h-46.5V3.5Zm109.442 89.25c0 12 .166 22 .5 30 .333 7.833 1 14.083 2 18.75 1.166 4.667 2.75 7.917 4.75 9.75 2.166 1.833 5 2.75 8.5 2.75s6.25-.917 8.25-2.75c2.166-1.833 3.75-5.083 4.75-9.75 1.166-4.667 1.916-10.917 2.25-18.75.333-8 .5-18 .5-30s-.167-21.917-.5-29.75c-.334-8-1.084-14.333-2.25-19-1-4.667-2.584-7.917-4.75-9.75-2-1.833-4.75-2.75-8.25-2.75s-6.334.917-8.5 2.75c-2 1.833-3.584 5.083-4.75 9.75-1 4.667-1.667 11-2 19-.334 7.833-.5 17.75-.5 29.75Zm-48 0c0-16.667 1.083-30.833 3.25-42.5 2.166-11.833 5.75-21.417 10.75-28.75 5-7.5 11.583-12.917 19.75-16.25 8.166-3.5 18.166-5.25 30-5.25 11.833 0 21.833 1.75 30 5.25 8.166 3.333 14.75 8.75 19.75 16.25 5 7.333 8.583 16.917 10.75 28.75 2.166 11.667 3.25 25.833 3.25 42.5s-1.084 30.917-3.25 42.75c-2.167 11.667-5.75 21.25-10.75 28.75-5 7.333-11.584 12.583-19.75 15.75-8.167 3.167-18.167 4.75-30 4.75-11.834 0-21.834-1.583-30-4.75-8.167-3.167-14.75-8.417-19.75-15.75-5-7.5-8.584-17.083-10.75-28.75-2.167-11.833-3.25-26.083-3.25-42.75Z"/></svg>
